public/img/atomo.svg

<svg width="109" height="118" viewBox="0 0 109 118" fill="none" xmlns="http://www.w3.org/2000/svg">
<path d="M67.4585 78.5855C56.2649 88.2032 44.6643 95.0505 34.9716 98.3571C30.1239 100.011 25.7785 100.77 22.2125 100.566C18.6476 100.361 15.9107 99.1973 14.19 97.0582C12.4692 94.9191 11.8622 91.9257 12.3184 88.2659C12.7746 84.605 14.2907 80.3282 16.7492 75.7043C21.6649 66.4592 30.2971 55.9218 41.4907 46.3041C52.6842 36.6864 64.2849 29.8391 73.9775 26.5325C78.8252 24.8786 83.1707 24.1191 86.7367 24.324C90.3015 24.5288 93.0384 25.6922 94.7591 27.8313C96.4799 29.9705 97.0869 32.9639 96.6308 36.6236C96.1745 40.2846 94.6584 44.5613 92.1999 49.1853C87.2842 58.4304 78.652 68.9677 67.4585 78.5855Z" stroke="#FEF9E9"/>
<path d="M74.7745 62.3634C74.831 77.4105 72.5599 91.02 68.8594 100.855C67.0085 105.774 64.8095 109.724 62.3869 112.437C59.9642 115.151 57.3583 116.587 54.6779 116.597C51.9974 116.608 49.3808 115.193 46.9378 112.499C44.4949 109.805 42.2664 105.874 40.3786 100.969C36.6044 91.1641 34.2313 77.5733 34.1748 62.5262C34.1183 47.4791 36.3894 33.8696 40.0899 24.0345C41.9408 19.1152 44.1398 15.1659 46.5624 12.4525C48.9851 9.73892 51.591 8.30295 54.2714 8.29221C56.9519 8.28146 59.5685 9.6965 62.0115 12.3906C64.4544 15.0845 66.6829 19.016 68.5707 23.9204C72.3449 33.7255 74.718 47.3163 74.7745 62.3634Z" stroke="#FEF9E9"/>
<path d="M67.4133 46.2654C78.6336 55.8496 87.2953 66.3611 92.2368 75.5915C94.7083 80.208 96.2363 84.4802 96.7028 88.1398C97.1692 91.7982 96.5705 94.7934 94.8557 96.9377C93.141 99.082 90.4074 100.254 86.8431 100.469C83.2777 100.685 78.9301 99.9381 74.0778 98.2987C64.376 95.021 52.7562 88.2085 41.5358 78.6243C30.3154 69.04 21.6538 58.5285 16.7123 49.2982C14.2408 44.6816 12.7128 40.4094 12.2463 36.7498C11.7799 33.0915 12.3786 30.0962 14.0933 27.9519C15.8081 25.8076 18.5417 24.636 22.106 24.4206C25.6714 24.205 30.0189 24.9516 34.8713 26.5909C44.5731 29.8686 56.1929 36.6811 67.4133 46.2654Z" stroke="#FEF9E9"/>
<ellipse cx="59.4102" cy="8.15615" rx="6.6983" ry="7.65142" fill="#FEF9E9"/>
<ellipse cx="92.5491" cy="73.7397" rx="6.6983" ry="7.65142" fill="#FEF9E9"/>
<ellipse cx="14.2847" cy="77.3833" rx="6.69831" ry="7.65142" fill="#FEF9E9"/>
</svg>

<svg width="109" height="118" fill="none" xmlns="http://www.w3.org/2000/svg"><path d="M67.459 78.585c-11.194 9.618-22.795 16.466-32.487 19.772-4.848 1.654-9.194 2.413-12.76 2.209-3.564-.205-6.301-1.369-8.022-3.508-1.72-2.139-2.328-5.132-1.872-8.792.457-3.661 1.973-7.938 4.431-12.562 4.916-9.245 13.548-19.782 24.742-29.4 11.193-9.618 22.794-16.465 32.487-19.772 4.847-1.653 9.193-2.413 12.759-2.208 3.565.205 6.301 1.368 8.022 3.507 1.72 2.14 2.328 5.133 1.872 8.793-.457 3.66-1.973 7.937-4.431 12.561-4.916 9.245-13.548 19.783-24.742 29.4z" stroke="#FEF9E9"/><path d="M74.775 62.363c.056 15.047-2.215 28.657-5.916 38.492-1.85 4.919-4.05 8.869-6.472 11.582-2.423 2.714-5.029 4.15-7.71 4.16-2.68.011-5.296-1.404-7.74-4.098-2.442-2.694-4.67-6.625-6.558-11.53-3.775-9.805-6.148-23.396-6.204-38.443-.057-15.047 2.214-28.656 5.915-38.492 1.85-4.919 4.05-8.868 6.472-11.581 2.423-2.714 5.029-4.15 7.71-4.16 2.68-.012 5.297 1.404 7.74 4.098 2.442 2.694 4.67 6.625 6.559 11.53 3.774 9.804 6.147 23.395 6.204 38.442z" stroke="#FEF9E9"/><path d="M67.413 46.265c11.22 9.585 19.882 20.096 24.824 29.326 2.471 4.617 4 8.89 4.466 12.549.466 3.658-.133 6.653-1.847 8.798-1.715 2.144-4.449 3.316-8.013 3.531-3.565.216-7.913-.53-12.765-2.17-9.702-3.278-21.322-10.09-32.542-19.675-11.22-9.584-19.882-20.095-24.824-29.326-2.471-4.616-4-8.889-4.466-12.548-.466-3.658.133-6.654 1.847-8.798 1.715-2.144 4.449-3.316 8.013-3.531 3.565-.216 7.913.53 12.765 2.17 9.702 3.278 21.322 10.09 32.542 19.674z" stroke="#FEF9E9"/><ellipse cx="59.41" cy="8.156" rx="6.698" ry="7.651" fill="#FEF9E9"/><ellipse cx="92.549" cy="73.74" rx="6.698" ry="7.651" fill="#FEF9E9"/><ellipse cx="14.285" cy="77.383" rx="6.698" ry="7.651" fill="#FEF9E9"/></svg>
